src/maps/svg/Aquidauana-MS.svg

<?xml version="1.0" encoding="UTF-8" standalone="no"?>
<!-- Created with Inkscape (http://www.inkscape.org/) -->

<svg
   width="1000"
   height="822.68964"
   viewBox="0 0 264.58333 217.66997"
   version="1.1"
   id="svg5"
   xml:space="preserve"
   xmlns="http://www.w3.org/2000/svg"
   xmlns:svg="http://www.w3.org/2000/svg"><defs
     id="defs2" /><path
     id="path752"
     style="display:inline;opacity:1;fill:#000000;stroke-width:0.142001;-inkscape-stroke:none;stop-color:#000000"
     d="m 247.48989,0 -8.41354,9.7448239 -2.39637,3.7275211 -3.35472,5.112099 -1.33129,1.277992 h -0.639 l -0.0533,-6.869345 -22.25867,-0.05314 -1.22483,8.519983 -11.55535,3.887269 -2.55599,0.05325 0.3728,2.343074 2.98194,-0.106607 2.92877,3.567904 1.49103,0.798749 1.43774,-0.798749 0.47939,0.692153 1.33115,-0.905193 1.86383,0.42595 0.63899,1.757235 5.16526,-0.479243 8.30708,6.336798 0.21305,4.313346 1.33128,2.44953 -0.85204,0.479243 0.42595,3.141823 4.20691,3.727521 v 1.43774 l 9.47848,1.384447 2.76902,1.22483 3.83412,-0.425951 2.18331,0.851901 0.37266,0.692294 1.17154,-0.958497 0.42595,0.692294 1.75738,-1.916982 1.86368,0.8519 0.74559,-2.289781 -0.79874,-2.928772 0.15975,-1.384447 -2.23662,-0.852042 0.58584,-3.408026 1.86369,-1.43774 2.39637,1.277992 1.43774,-0.798738 3.88727,2.236478 3.46132,-2.66257 1.49089,0.639132 1.70408,-1.65078 -1.27799,-3.67437 -1.65078,-1.703928 -4.73931,1.011645 -1.86383,-0.425947 0.31963,-1.224699 -0.85204,-2.609277 -1.65078,-1.065082 -0.37279,-1.810539 1.54433,-2.662428 4.84576,-12.620445 0.79874,-1.06494 2.60928,-0.798749 -3.19498,-0.159879 -4.36665,-2.555984 -4.57942,0.905335 -3.24828,-0.159748 -0.74559,-1.437881 z m -21.28162,26.304023 8.00127,2.788407 -0.60217,1.568554 -0.0951,1.758618 0.52286,-0.158353 0.17442,-0.316871 0.28517,-0.04748 1.50515,-1.159352 0.7341,0.398683 0.54929,-0.665441 0.36436,-0.174285 1.69535,-2.218075 0.41183,-0.111017 2.39249,1.315092 -2.58519,4.591324 4.32817,2.332555 0.50694,0.04748 2.63004,1.42598 0.71305,0.649651 0.54529,0.918899 -2.49411,0.903125 -4.15112,0.09506 -1.94882,0.285172 -1.53686,0.253603 -1.25168,0.554413 -0.35647,-0.03158 -0.27727,-0.190206 -0.39287,0.09506 -0.47855,0.744618 0.0633,0.443678 -0.71292,1.140666 -0.61795,0.253603 -0.28516,0.570333 -0.38027,-0.158506 -0.28517,0.111028 -0.45945,-0.174285 -0.57047,0.06327 -1.20408,-0.475224 -2.0478,-1.036574 -0.71624,-0.959738 -0.8494,-0.639132 -0.6091,-1.569393 1.75086,-1.562453 0.0158,-0.934823 -0.30095,-0.934692 0.0158,-1.647731 -0.47536,-0.887346 h -0.83973 l -1.52094,-0.982301 -0.0476,-0.66543 2.39872,-1.175141 -1.68566,-4.037608 z m 4.29369,10.029157 -0.47537,0.966381 h 1.5e-4 z m -0.77646,1.093188 -0.17414,0.443667 0.17428,-0.443667 z m 7.92211,0.712908 v 1.41e-4 l 0.74475,0.491015 z" /><path
     id="path631"
     style="display:inline;fill:#000000;stroke-width:0.483112;-inkscape-stroke:none;stop-color:#000000"
     d="m 122.10471,86.126464 -7.28915,12.426245 22.77542,12.682431 7.04572,-13.066704 z" /><path
     id="path568"
     style="display:inline;fill:#000000;stroke-width:0.483112;-inkscape-stroke:none;stop-color:#000000"
     d="m 157.0035,39.295398 -4.48036,1.206603 -18.44085,24.127818 -3.96375,1.89589 -5.97499,7.238203 -7.98481,-4.336694 -16.372302,12.609534 -3.102485,0.51661 -1.895886,3.447134 -5.686961,1.723214 -3.619098,7.066236 -19.130154,5.342314 v 4.99838 l -5.170348,2.24054 51.530104,30.33209 11.43194,1.72322 1.83857,-4.99767 2.24053,0.86125 2.58518,-4.30839 2.75713,1.03393 1.89589,-4.48037 4.48106,2.58448 43.08529,-76.519881 z m -34.89879,46.831066 22.53199,12.041972 -7.04572,13.066704 -22.77542,-12.682431 z" /><path
     id="path629"
     style="display:inline;fill:#000000;stroke-width:0.483112;-inkscape-stroke:none;stop-color:#000000"
     d="m 31.366022,109.78368 -0.171967,17.92354 3.274459,10.16802 -0.172675,10.16872 2.929817,-1.72391 3.447134,1.37856 5.342316,-0.68929 1.895889,-4.82498 3.274458,-1.37929 5.170348,-10.51266 -2.757142,-12.92586 3.79107,-2.58518 2.387022,-4.66436 -26.601177,0.79756 z" /><path
     style="display:inline;fill:#000000;stroke-width:0.483112;-inkscape-stroke:none;stop-color:#000000"
     d="m 207.50015,129.43068 28.60883,15.51081 7.7554,7.06604 5.93081,9.99585 -27.12891,9.82353 -45.1537,1.03404 5.51495,-9.47883 8.61712,-9.8235 7.06604,-16.37253 z"
     id="path643" /><path
     id="path479"
     style="display:inline;fill:#000000;stroke-width:0.483112;-inkscape-stroke:none;stop-color:#000000"
     d="m 154.90733,103.5419 -14.96542,26.57782 -4.48106,-2.58448 -1.89589,4.48037 -2.75713,-1.03393 -2.58518,4.30839 -2.24053,-0.86125 -1.83857,4.99767 12.17926,6.37695 -2.24052,4.13571 8.10016,5.34302 -2.06787,3.96375 12.58052,7.2382 3.27446,-2.58518 5.515,4.3091 20.43441,-2.92062 1.10823,-1.90509 8.61749,-9.82337 7.06623,-16.37301 8.78945,-7.75552 -5.51499,-0.51661 z" /><path
     id="path641"
     style="display:inline;fill:#000000;stroke-width:0.483112;-inkscape-stroke:none;stop-color:#000000"
     d="m 181.91897,165.28742 -20.43441,2.92062 -5.17034,7.75481 21.1987,-3.10177 z" /><path
     style="fill:#000000;stroke-width:0.483112;-inkscape-stroke:none;stop-color:#000000"
     d="M 9.6511243,21.201354 96.684021,51.531936 90.135003,68.593828 89.100955,87.723827 85.481761,94.789867 66.351757,100.13248 39.811038,78.072656 33.434369,78.589686 29.125809,76.693917 7.755357,25.508239 Z"
     id="path627" /><path
     style="display:inline;fill:#000000;stroke-width:0.483112;-inkscape-stroke:none;stop-color:#000000"
     d="m 76.261444,183.54618 -15.079958,27.23009 13.098015,5.17027 6.204327,-0.68936 4.997933,1.89576 3.102157,-1.2064 4.136218,1.72343 3.10217,-6.20433 6.721354,-2.75748 7.75539,-12.40864 -0.68936,-4.82559 5.20585,-8.10009 4.27297,-1.03406 3.01599,2.06811 3.87771,0.34469 13.61505,-6.03199 -7.92775,-2.75747 -4.13621,1.89577 -11.3746,-0.86172 -11.02991,3.79153 -10.340545,8.27243 z"
     id="path649-5" /><path
     id="path644"
     style="display:inline;fill:#000000;stroke-width:0.483112;-inkscape-stroke:none;stop-color:#000000"
     d="m 31.366022,109.78368 1.809552,1.13088 26.601177,-0.79757 1.404755,-2.74581 5.170348,-2.24054 v -4.99838 L 39.810829,78.073007 33.434587,78.589617 29.125492,76.693729 26.091645,69.427218 -1.8200799e-7,82.208719 0.51731806,89.446924 17.061582,100.13226 h 9.134092 z" /><path
     style="fill:#000000;stroke-width:0.483112;-inkscape-stroke:none;stop-color:#000000"
     d="m 104.00652,132.5789 -15.422602,26.83935 17.923612,9.65118 -11.719285,19.9917 10.340545,-8.27243 11.02991,-3.79153 11.3746,0.86172 4.13621,-1.89577 7.92775,2.75747 16.71722,-2.75747 5.17026,-7.75541 -5.51496,-4.30856 -3.2745,2.58513 -12.581,-7.23837 2.06811,-3.96388 -8.10009,-5.34261 2.24046,-4.13622 -12.17897,-6.37665 -11.43193,-1.72344 z"
     id="path645" /><path
     style="fill:#000000;stroke-width:0.483112;-inkscape-stroke:none;stop-color:#000000"
     d="m 76.174757,183.7027 -4.135697,-1.19057 -18.095954,-10.68522 -4.653242,-5.34263 1.378735,-11.54692 -4.653237,-7.92776 -5.342613,0.68937 -3.446847,-1.37874 -2.929822,1.72343 -19.045242,16.99546 6.625833,17.06998 9.239538,6.95203 7.790197,10.44004 22.27508,11.2751 z"
     id="path653-2" /><path
     style="fill:#000000;stroke-width:0.483112;-inkscape-stroke:none;stop-color:#000000"
     d="m 46.015362,147.0096 4.65324,7.92776 -1.378738,11.54692 4.653245,5.34263 18.095951,10.68522 22.749185,6.549 11.719285,-19.9917 -17.923612,-9.65118 15.422602,-26.83935 -42.825034,-25.20805 -3.791529,7.41072 -3.791533,2.58513 2.757473,12.92569 -5.170264,10.51288 -3.274507,1.37874 z"
     id="path647" /></svg>

<?xml version="1.0" encoding="UTF-8" standalone="no"?>
<svg version="1.1" width="1000" height="822.68964" viewBox="0 0 264.58333 217.66997" xmlns="http://www.w3.org/2000/svg"
  xmlns:svg="http://www.w3.org/2000/svg">
  <path class="neighborhood"
    d="M 247.4898 0 L 239.07636 9.7446249 L 236.68013 13.472563 L 233.32529 18.584395 L 231.99411 19.862354 L 231.35487 19.862354 L 231.30164 12.993005 L 209.04305 12.939779 L 207.81832 21.460189 L 196.26296 25.34729 L 193.70704 25.400517 L 194.07963 27.743526 L 197.06136 27.637073 L 199.99038 31.204814 L 201.48124 32.003731 L 202.91888 31.204814 L 203.39844 31.896761 L 204.72962 30.991907 L 206.59359 31.417721 L 207.23231 33.174719 L 212.39789 32.695679 L 220.70488 39.03276 L 220.91778 43.345675 L 222.24897 45.795654 L 221.39734 46.274695 L 221.82315 49.416622 L 226.03013 53.144043 L 226.03013 54.581681 L 235.50862 55.966093 L 238.27745 57.190825 L 242.11184 56.765011 L 244.29465 57.617155 L 244.66775 58.309103 L 245.83926 57.350505 L 246.26507 58.042969 L 248.02259 56.12629 L 249.88604 56.977918 L 250.63173 54.688135 L 249.83281 51.759631 L 249.99249 50.37522 L 247.75594 49.523075 L 248.34195 46.115015 L 250.2054 44.677376 L 252.60215 45.955335 L 254.03979 45.156417 L 257.92689 47.392973 L 261.38818 44.730086 L 262.87905 45.369324 L 264.58333 43.718779 L 263.30538 40.044067 L 261.65431 38.340295 L 256.91507 39.35212 L 255.05162 38.926306 L 255.37098 37.701575 L 254.51883 35.091915 L 252.86829 34.026864 L 252.49518 32.216638 L 254.03979 29.554268 L 258.88549 16.93385 L 259.68441 15.868799 L 262.29355 15.069881 L 259.0984 14.910201 L 254.73174 12.354285 L 250.15269 13.259139 L 246.90431 13.099459 L 246.15862 11.661821 L 247.4898 0 z M 226.20842 26.303821 L 234.20948 29.092281 L 233.60745 30.661178 L 233.51236 32.419727 L 234.03533 32.26108 L 234.20948 31.944303 L 234.49473 31.896761 L 236.00007 30.737659 L 236.73387 31.136084 L 237.28319 30.471008 L 237.64751 30.296342 L 239.34301 28.07839 L 239.75488 27.967285 L 242.14749 29.28245 L 239.56212 33.873901 L 243.89002 36.206576 L 244.39697 36.254118 L 247.0273 37.679871 L 247.74043 38.329443 L 248.28562 39.24825 L 245.79172 40.151554 L 241.64055 40.246639 L 239.69131 40.531893 L 238.15446 40.785108 L 236.90285 41.339596 L 236.54629 41.308073 L 236.2693 41.117904 L 235.87656 41.212988 L 235.39804 41.957646 L 235.46108 42.401546 L 234.74846 43.542045 L 234.13041 43.795776 L 233.84516 44.365768 L 233.46482 44.207638 L 233.17957 44.318225 L 232.72016 44.144076 L 232.14965 44.207638 L 230.94559 43.732214 L 228.89766 42.695585 L 228.18142 41.735954 L 227.33238 41.096716 L 226.72311 39.527303 L 228.47391 37.965125 L 228.48993 37.030298 L 228.18866 36.095471 L 228.20468 34.44751 L 227.72925 33.560226 L 226.88951 33.560226 L 225.36867 32.577857 L 225.32113 31.912781 L 227.71995 30.737659 L 226.03427 26.699662 L 226.20842 26.303821 z "
    data-name="Zona Rural" id="zona_rural" />
  <path class="neighborhood" d="m 122.10471,86.126464 -7.28915,12.426245 22.77542,12.682431 7.04572,-13.066704 z"
    data-name="Vila Eliane" id="vila_eliane" />
  <path class="neighborhood"
    d="m 157.0035,39.295398 -4.48036,1.206603 -18.44085,24.127818 -3.96375,1.89589 -5.97499,7.238203 -7.98481,-4.336694 -16.372302,12.609534 -3.102485,0.51661 -1.895886,3.447134 -5.686961,1.723214 -3.619098,7.066236 -19.130154,5.342314 v 4.99838 l -5.170348,2.24054 51.530104,30.33209 11.43194,1.72322 1.83857,-4.99767 2.24053,0.86125 2.58518,-4.30839 2.75713,1.03393 1.89589,-4.48037 4.48106,2.58448 43.08529,-76.519881 z m -34.89879,46.831066 22.53199,12.041972 -7.04572,13.066704 -22.77542,-12.682431 z"
    data-name="Vila Cidade Nova" id="vila_cidade_nova" />
  <path class="neighborhood"
    d="m 31.366022,109.78368 -0.171967,17.92354 3.274459,10.16802 -0.172675,10.16872 2.929817,-1.72391 3.447134,1.37856 5.342316,-0.68929 1.895889,-4.82498 3.274458,-1.37929 5.170348,-10.51266 -2.757142,-12.92586 3.79107,-2.58518 2.387022,-4.66436 -26.601177,0.79756 z"
    data-name="Trindade" id="trindade" />
  <path class="neighborhood"
    d="m 207.50015,129.43068 28.60883,15.51081 7.7554,7.06604 5.93081,9.99585 -27.12891,9.82353 -45.1537,1.03404 5.51495,-9.47883 8.61712,-9.8235 7.06604,-16.37253 z"
    data-name="S&#227;o Francisco" id="sao_francisco" />
  <path class="neighborhood"
    d="m 154.90733,103.5419 -14.96542,26.57782 -4.48106,-2.58448 -1.89589,4.48037 -2.75713,-1.03393 -2.58518,4.30839 -2.24053,-0.86125 -1.83857,4.99767 12.17926,6.37695 -2.24052,4.13571 8.10016,5.34302 -2.06787,3.96375 12.58052,7.2382 3.27446,-2.58518 5.515,4.3091 20.43441,-2.92062 1.10823,-1.90509 8.61749,-9.82337 7.06623,-16.37301 8.78945,-7.75552 -5.51499,-0.51661 z"
    data-name="Santa Therezinha" id="santa_therezinha" />
  <path class="neighborhood" d="m 181.91897,165.28742 -20.43441,2.92062 -5.17034,7.75481 21.1987,-3.10177 z"
    data-name="Princesa do Sul" id="princesa_do_sul" />
  <path class="neighborhood"
    d="M 9.6511243,21.201354 96.684021,51.531936 90.135003,68.593828 89.100955,87.723827 85.481761,94.789867 66.351757,100.13248 39.811038,78.072656 33.434369,78.589686 29.125809,76.693917 7.755357,25.508239 Z"
    data-name="Nova Aquidauana" id="nova_aquidauana" />
  <path class="neighborhood"
    d="m 76.261444,183.54618 -15.079958,27.23009 13.098015,5.17027 6.204327,-0.68936 4.997933,1.89576 3.102157,-1.2064 4.136218,1.72343 3.10217,-6.20433 6.721354,-2.75748 7.75539,-12.40864 -0.68936,-4.82559 5.20585,-8.10009 4.27297,-1.03406 3.01599,2.06811 3.87771,0.34469 13.61505,-6.03199 -7.92775,-2.75747 -4.13621,1.89577 -11.3746,-0.86172 -11.02991,3.79153 -10.340545,8.27243 z"
    data-name="Guanandy" id="guanandy" />
  <path class="neighborhood"
    d="m 31.366022,109.78368 1.809552,1.13088 26.601177,-0.79757 1.404755,-2.74581 5.170348,-2.24054 v -4.99838 L 39.810829,78.073007 33.434587,78.589617 29.125492,76.693729 26.091645,69.427218 -1.8200799e-7,82.208719 0.51731806,89.446924 17.061582,100.13226 h 9.134092 z"
    data-name="Dos Banc&#225;rios" id="dos_bancarios" />
  <path class="neighborhood"
    d="m 104.00652,132.5789 -15.422602,26.83935 17.923612,9.65118 -11.719285,19.9917 10.340545,-8.27243 11.02991,-3.79153 11.3746,0.86172 4.13621,-1.89577 7.92775,2.75747 16.71722,-2.75747 5.17026,-7.75541 -5.51496,-4.30856 -3.2745,2.58513 -12.581,-7.23837 2.06811,-3.96388 -8.10009,-5.34261 2.24046,-4.13622 -12.17897,-6.37665 -11.43193,-1.72344 z"
    data-name="Da Serraria" id="da_serraria" />
  <path class="neighborhood"
    d="m 76.174757,183.7027 -4.135697,-1.19057 -18.095954,-10.68522 -4.653242,-5.34263 1.378735,-11.54692 -4.653237,-7.92776 -5.342613,0.68937 -3.446847,-1.37874 -2.929822,1.72343 -19.045242,16.99546 6.625833,17.06998 9.239538,6.95203 7.790197,10.44004 22.27508,11.2751 z"
    data-name="Centro" id="centro" />
  <path id="alto" class="neighborhood"
    d="M 61.181279 107.37122 L 57.389779 114.78162 L 53.598796 117.36648 L 56.355733 130.29231 L 51.185506 140.80536 L 47.911288 142.18409 L 46.015279 147.00963 L 50.668742 154.93731 L 49.290015 166.48441 L 53.942961 171.82672 L 72.039014 182.51237 L 76.174679 183.70248 L 76.261495 183.54642 L 94.788013 189.06133 L 106.50771 169.06927 L 88.58374 159.41818 L 104.00657 132.57899 L 61.181279 107.37122 z " />
</svg>
